app/dist/common/images/inner-mongolia-mengdian-huaneng-thermal-power-li.svg

<svg height="18" viewBox="0 0 18 18" width="18" xmlns="http://www.w3.org/2000/svg"><path d="m0 0h18v18h-18z" fill="#f0f3fa"/><path d="m5.4 5h3.89l-.69 2.19-3.54-1.05zm-.34 1.24 4.91 1.9-.11.29-5.03-1.53zm4.68 2.76-4.91-1.9-.23.66 5.03 1.44zm-5.14-1.14 4.8 1.9-.11.29-4.92-1.53zm3.2 2.1-3.43-1.26-1.37 4.3h3.89l.91-3.05zm.91 3.04h3.89l2.4-8h-3.96z" fill="#0259ff"/></svg>

<!-- by TradingView --><svg width="18" height="18" viewBox="0 0 18 18" xmlns="http://www.w3.org/2000/svg"><path fill="#F0F3FA" d="M0 0h18v18H0z"/><path d="M5.4 5h3.89L8.6 7.19 5.06 6.14 5.4 5Zm-.34 1.24 4.91 1.9-.11.29L4.83 6.9l.23-.66ZM9.74 9 4.83 7.1l-.23.66L9.63 9.2 9.74 9ZM4.6 7.86l4.8 1.9-.11.29-4.92-1.53.23-.66Zm3.2 2.1L4.37 8.7 3 13h3.89l.91-3.05ZM8.71 13h3.89L15 5h-3.96l-2.33 8Z" fill="#0259FF"/></svg>
